assets/images/svg/faq.svg

<svg width="17" height="17" viewBox="0 0 17 17" fill="none" xmlns="http://www.w3.org/2000/svg">
<g clip-path="url(#clip0)">
<path d="M8.63077 5.19011C9.36274 5.19011 9.80248 5.58055 9.80248 6.23917C9.80248 7.43533 7.6673 7.76503 7.6673 9.21675C7.6673 9.60719 7.92286 10.0339 8.44778 10.0339C9.25311 10.0339 9.15569 9.43603 9.44872 9.00852C9.83876 8.43548 11.6573 7.82537 11.6573 6.23877C11.6573 4.51888 10.1204 3.79834 8.5582 3.79834C7.0702 3.79834 5.70288 4.86002 5.70288 6.05618C5.70288 6.54403 6.06926 6.80037 6.49638 6.80037C7.67913 6.80077 7.06941 5.19011 8.63077 5.19011Z" fill="#9E9E9E"/>
<path d="M9.49743 11.8283C9.49743 11.2789 9.04587 10.8278 8.49689 10.8278C7.94791 10.8278 7.49634 11.2797 7.49634 11.8283C7.49634 12.3777 7.94791 12.8289 8.49689 12.8289C9.04587 12.8289 9.49743 12.3777 9.49743 11.8283Z" fill="#9E9E9E"/>
<path d="M16.5918 8.31394C16.5918 3.95129 13.0423 0.401855 8.67967 0.401855C4.31701 0.401855 0.767578 3.95129 0.767578 8.31394C0.767578 12.6766 4.31701 16.226 8.67967 16.226C13.0423 16.226 16.5918 12.677 16.5918 8.31394ZM1.55634 8.31394C1.55634 4.3863 4.75202 1.19062 8.67967 1.19062C12.6073 1.19062 15.803 4.3863 15.803 8.31394C15.803 12.2416 12.6073 15.4373 8.67967 15.4373C4.75202 15.4373 1.55634 12.2416 1.55634 8.31394Z" fill="#9E9E9E"/>
</g>
<defs>
<clipPath id="clip0">
<rect width="15.8242" height="15.8242" fill="white" transform="translate(0.767578 0.401855)"/>
</clipPath>
</defs>
</svg>

<svg width="17" height="17" fill="none" xmlns="http://www.w3.org/2000/svg"><g clip-path="url(#clip0)" fill="#9E9E9E"><path d="M8.63 5.19c.733 0 1.172.39 1.172 1.05 0 1.195-2.135 1.525-2.135 2.977 0 .39.256.817.78.817.806 0 .709-.598 1.002-1.025.39-.574 2.208-1.184 2.208-2.77 0-1.72-1.537-2.44-3.099-2.44-1.488 0-2.855 1.061-2.855 2.257 0 .488.366.744.793.744 1.183 0 .573-1.61 2.135-1.61zm.867 6.638c0-.55-.451-1-1-1-.55 0-1 .452-1 1 0 .55.45 1 1 1 .549 0 1-.45 1-1z"/><path d="M16.592 8.314c0-4.363-3.55-7.912-7.912-7.912C4.317.402.768 3.952.768 8.314c0 4.363 3.549 7.912 7.912 7.912 4.362 0 7.912-3.549 7.912-7.912zm-15.036 0c0-3.928 3.196-7.123 7.124-7.123 3.927 0 7.123 3.195 7.123 7.123 0 3.928-3.196 7.123-7.123 7.123-3.928 0-7.124-3.195-7.124-7.123z"/></g><defs><clipPath id="clip0"><path fill="#fff" transform="translate(.768 .402)" d="M0 0h15.824v15.824H0z"/></clipPath></defs></svg>
